X:690
T:Reel 690
M:4/4
K:Dmaj
L:1/8
AG|F>D (3DDD FDAD|F>D (3DDD F2GB|eEEG GECE|G>E (3EEE G2AG|F>D (3DDD FDAG|F>D (3DDD d2df|gefd ecdB|AGED CDAG|FDDF ADFD|A,DDF GBAG|FDDF DDAD|GECE A,ECE|FDAD BDAD|FDAD dBAG|FDED CDED|CA,B,C DFAG|FDFA dABG|FDFA dBAG|FDAD FABA|GEEF GABc|FDAD FADA|FDAB dABc|dBcA BGAG|FDEC A,DD2|
